!!!OTL: La Marseillaise
!!!COM: de Lisle, Rouget
!!!LYR: de Lisle, Rouget
!!!OMD: Marcia maestoso
**kern	**text
*k[f#]	*
*M4/4	*
*met(c)	*
16d	Al-
8.d	-lons
16d	en-
=1	=1
4g	-fants
4g	de
4a	la
4a	Pa-
=2	=2
(4.dd	-tri-
8b)	.
8g	-e!
16r	.
16g	Le
8.b/	jour
16g	de
=3	=3
4e	gloire
2cc^^	est
8.a	ar-
16f#	-ri-
=4	=4
2g	-vé;
4r	.
8.g	Con-
16a	-tre
=5	=5
4b/	nous
4b/	de
4b/	la
8.cc	ty-
16b	-ran-
=6	=6
4b/	-ni-
4a	-e
4r	.
8.a	L'é-
16b/	-ten-
=7	=7
4cc	-dard
4cc	sang-
4cc	-lant
8.dd	est
16cc	le-
=8	=8
2b	-vé.
4r	.
8.dd	L'é-
16dd	-ten-
=9	=9
((4dd	-dard
8.b)	.
16g	sang-
4dd	-lant
8.b	est
16g	le-
=10	=10
2d	-vé!
8.r	.
16d	En-
8.d	-ten-
16d	-dez--
=11	=11
2a	vous
4cc	dans
8.a	les
16f#	cam-
=12	=12
4g	-pag-
4g	-nes
2fn	Mu-
=13	=13
4e	-gir
8.g	ces
16g	fé-
4g	-ro-
8.f#X	-ces
16g	sol-
=14	=14
2a	-dats?
4r	.
8r	.
8a	Ils
=15	=15
4.b-/	vien-
8b-/	-nent
8b-/	jus-
8b-/	-que
8cc	dans
8dd	nos
=16	=16
2.a	bras
8b-/	E-
8a	-gor-
=17	=17
4.g	-ger
8g	nos
4b-/	fils
8a	nos
8g	com-
=18	=18
(4g	-pag-
8f#)	-nes!
8r	.
4r	.
8.r	.
16dd	Aux
=19	=19
[2dd	ar-
8r	.
8dd	-mes
8.b	ci-
16g	-toy-
=20	=20
2.a	-ens
8.r	.
16dd	for-
=21	=21
2dd	-mez
8r	.
8dd	vos
8.b	ba-
16g	-tail-
=22	=22
2a	-lons!
4r	.
4d	Mar-
=23	=23
2g^	-chons!
4r	.
4a	mar-
=24	=24
2b^/	-chons!
2r	.
=25	=25
2cc	Qu'un
4dd	sang
4ee	im-
=26	=26
2.a^^	-pur
4ee	a-
=27	=27
([2dd	-breu-
8.dd)	.
16b	-ve
8.cc	nos
16a	sil-
=28	=28
2g	-lons!
8.r	.
==	=
*-	*-
